X: 11381
M: C|
L: 1/8
K: Eb
V: 1 name="Eb Bugle" sname="EbBgl" staves=8
K: C
|: G>G |\
V: 2 name="Bb Bugle" sname="BbBgl"
K: F
c3B G2d>c | c3A F2f>e | d2d>e f>ef>g | c4 z2 :|
|: c>c |\
d2d>d d>^cd>e | (f4 c)z d>c | B>AB>c d>ef>g | (a4 f)z c>c |\
d2d>d d>^cd>e | (f4 c)z d>c | B>AB>c d>ef>g | f2f>f f2 H:|
V: 3 name="Bb Post Horn" sname="BbPHn"
K: F
|: z2 |\
z2B2 B2B2 | z2A2 A2A2 | z2G2 G2G2 | z2A2 c2A2 |\
V: 4 name="Bb Cornopeon" sname="BbCrn"
K: F
c2A>c f2c>f | a6 g>a | b>ag>f g>fe>d | (c4 A2) (d>c) |\
c3B G2d>c | c3A F2f>e | d2d>e f2f2 | e4 z2 :|
|: z2 |\
d2d2 d2d2 | c2c2 c2c2 | B>AB>c d>ef>g | f2f>f f2 H:|
V: 5 name="Tenor Trombone" sname="TTbn" clef=bass middle=D
K: Eb
z2 |\
z2"_>"A2 "_>"A2z2 | z2"_>"B2 "_>"B2z2 | =A2A2 A2A2 B4 z2 :|
|: z2 |\
z2c2 c2c2 | z2B2 z2B2 | A2z2 A2A2 | G2G2 G2 H:|
V: 6 name="Base Trombone" sname="BTbn" clef=bass middle=d
K: Eb
z2 |\
e2z2 e2z2 | e2e2 e2e2 | e2e2 e2e2 | e2e2 e2z2 |\
|: z2 |\
V: 7 name="1st Ophecleide" sname="Oph1" clef=bass middle=d
K: Eb
z2 |\
g2z2 g2z2 | z2g2 g2g2 | z2a2 a2a2 | z2g2 g2z2 |\
|: b>b |\
c'2c'>c' c'>=bc'>d' | (e'4 b)z c'>b | a>ga>b c'>d'e'>f' | (g'4 e')zz2 |\
a2a2 a2a2 | z2g2 z2_g2 | a2z2 a2a2 | e2g2 e2 H:|
V: 8 name="2d Ophecleide" sname="Oph2" clef=bass middle=d
V: 8 clef=bass middle=d
K: Eb
z2 |\
E2z2 e2z2 | e2E2 E2E2 | E2e2 e2e2 | e2e2 E2z2 |\
|: z2 |\



